X: 19449
T: Jackson's
R: reel
M: 4/4
K: Edorian
~e3d B2dB|A2GB AGFD|EFGA BAGB|ABdf eB~B2|
efed BcdB|A2GB AGFD|EFGA (3Bcd ef|gefd Bee2:|
efed Bdeg|fddc dfaf|gfed Beed|BdAd BEEd|
~e3d Bdeg|fddc dfa2|bagf gfed|B2Ad BEEd|
efed Bdeg|fddc dfaf|gfed (3Bcd ef|g2ga bgef|
gbef gbeg|fddc dfa2|bagf gfed|g2gf efgf||

